X: 114
T:NO NAME from Joanie Madden
M:4/4
L:1/8
S:Joanie Madden
R:REEL
N:this is the tune, as notated by Joanie, without her ornamentation
H:taught by Joanie Madden in the whistle workshop at the 1999 CCE
H:Convention in Parsippany, New Jersey, USA on April 10, 1999
Z:Tom Madden from notation handed out by Joanie Madden
K:G
BGGF GBAF|D2 (3FED ADFE| DGGF GABc|1 d2 e^c d2= cA:|2 d2e^c d2 B=c||
dggf g2 ag|f2de fdcA|dggf gbag|fgaf g3f|defg a3g|f2e defg|a2ge (3fed e^c
|d2 e^c d2= cA:||
<end>
<start>
